fs/thumb_like_28_filled.svg

<svg viewBox="0 0 28 28" fill="none" xmlns="http://www.w3.org/2000/svg" height="1em" width="1em">
  <path d="M16.1216 1.11553C15.2377 0.869116 14.5423 1.49585 14.302 2.10367C14.2148 2.32423 14.1282 2.54411 14.0419 2.76316C12.0361 7.85491 10.2048 12.5036 5.43019 14.921C4.32872 15.4787 3.56176 16.6856 3.78193 18.0066L4.198 20.5031C4.43601 21.9311 5.47476 23.0946 6.86678 23.4923L14.5565 25.6893C18.34 26.7703 22.2425 24.3989 23.0258 20.5427L24.2539 14.4967C24.7258 12.1731 22.9499 10.0002 20.5789 10.0002H18.4117C18.757 8.49665 18.9161 6.78282 18.7586 5.27033C18.5743 3.50091 17.9003 1.61139 16.1216 1.11553Z" fill="#212121"/>
</svg>

<svg viewBox="0 0 28 28" fill="none" xmlns="http://www.w3.org/2000/svg" height="1em" width="1em">
  <path d="M16.122 1.116c-.884-.247-1.58.38-1.82.988l-.26.66c-2.006 5.09-3.837 9.74-8.612 12.157-1.101.558-1.868 1.765-1.648 3.086l.416 2.496a3.75 3.75 0 0 0 2.669 2.99l7.69 2.196a6.75 6.75 0 0 0 8.469-5.146l1.228-6.046A3.75 3.75 0 0 0 20.579 10h-2.167c.345-1.503.504-3.217.347-4.73-.185-1.77-.859-3.659-2.637-4.154Z" fill="#212121"/>
</svg>
